brandFactory_export/3.Masa/Envio_Envio Gratis_3Masa.svg

<?xml version="1.0" encoding="UTF-8"?>
<svg width="24px" height="24px" viewBox="0 0 24 24" version="1.1" xmlns="http://www.w3.org/2000/svg" xmlns:xlink="http://www.w3.org/1999/xlink">
    <title>3.Masa/Envio_Envio Gratis_3Masa</title>
    <g id="Symbols" stroke="none" stroke-width="1" fill="none" fill-rule="evenodd">
        <g id="3.Masa/Envio_Envio-Gratis_3Masa" fill="#5CB615" fill-rule="nonzero">
            <path d="M22.8336134,10.1915966 C22.4403361,9.68067227 19.4319328,5.68739496 18.9142857,4.96470588 C18.5109244,4.40672269 17.7647059,4.0302521 17.0588235,4.0302521 L3.94957983,4.0302521 C3.45882353,4.0302521 2.95798319,4.25210084 2.57142857,4.63529412 C2.18487395,5.01848739 1.96638655,5.52268908 1.96638655,6.01344538 L1.96638655,6.65210084 L0.672268908,6.65210084 C0.302521008,6.65210084 0,6.95462185 0,7.32436975 C0,7.69411765 0.302521008,7.99663866 0.672268908,7.99663866 L1.96638655,7.99663866 L1.96638655,9.92941176 L0.672268908,9.92941176 C0.302521008,9.92941176 0,10.2319328 0,10.6016807 C0,10.9714286 0.302521008,11.2739496 0.672268908,11.2739496 L1.96638655,11.2739496 L1.96638655,13.2067227 L0.672268908,13.2067227 C0.302521008,13.2067227 0,13.5092437 0,13.8789916 C0,14.2487395 0.302521008,14.5512605 0.672268908,14.5512605 L1.96638655,14.5512605 L1.96638655,15.8453782 C1.96638655,16.3361345 2.18823529,16.8369748 2.57142857,17.2235294 C2.95462185,17.610084 3.45882353,17.8285714 3.94957983,17.8285714 L4.11764706,17.8285714 C4.43697479,19.0890756 5.42521008,19.794958 6.93781513,19.794958 C8.45042017,19.794958 9.43865546,19.0890756 9.75462185,17.8285714 L15.2571429,17.8285714 C15.5764706,19.0890756 16.5647059,19.794958 18.0773109,19.794958 C19.589916,19.794958 20.5781513,19.0890756 20.897479,17.8285714 L21.6470588,17.8285714 C22.1378151,17.8285714 22.6386555,17.6067227 23.0252101,17.2235294 C23.4117647,16.8403361 23.6302521,16.3361345 23.6302521,15.8453782 L23.6302521,11.912605 C23.6268908,11.2268908 23.1294118,10.5781513 22.8336134,10.1915966 Z M6.93445378,18.4504202 C5.82184874,18.4504202 5.34789916,17.9764706 5.34789916,16.8638655 C5.34789916,15.7512605 5.82184874,15.2773109 6.93445378,15.2773109 C8.04705882,15.2773109 8.5210084,15.7512605 8.5210084,16.8638655 C8.5210084,17.9764706 8.04705882,18.4504202 6.93445378,18.4504202 Z M18.0739496,18.4504202 C16.9613445,18.4504202 16.487395,17.9764706 16.487395,16.8638655 C16.487395,15.7512605 16.9613445,15.2773109 18.0739496,15.2773109 C19.1865546,15.2773109 19.6605042,15.7512605 19.6605042,16.8638655 C19.6605042,17.9764706 19.1865546,18.4504202 18.0739496,18.4504202 Z" id="Envio_Envio-Gratis_3Masa"></path>
        </g>
    </g>
</svg>

<svg width="24" height="24" viewBox="0 0 24 24" xmlns="http://www.w3.org/2000/svg"><path d="M22.834 10.192c-.394-.511-3.402-4.505-3.92-5.227-.403-.558-1.15-.935-1.855-.935H3.949c-.49 0-.991.222-1.378.605-.386.383-.605.888-.605 1.378v.64H.672A.674.674 0 000 7.323c0 .37.303.673.672.673h1.294v1.932H.672a.674.674 0 00-.672.673c0 .37.303.672.672.672h1.294v1.933H.672a.674.674 0 00-.672.672c0 .37.303.672.672.672h1.294v1.294c0 .491.222.992.605 1.379.384.386.888.605 1.379.605h.168c.319 1.26 1.307 1.966 2.82 1.966 1.512 0 2.5-.706 2.817-1.966h5.502c.32 1.26 1.308 1.966 2.82 1.966 1.513 0 2.501-.706 2.82-1.966h.75c.49 0 .992-.222 1.378-.605.387-.384.605-.888.605-1.379v-3.932c-.003-.686-.5-1.335-.796-1.721zm-15.9 8.258c-1.112 0-1.586-.474-1.586-1.586 0-1.113.474-1.587 1.586-1.587 1.113 0 1.587.474 1.587 1.587 0 1.112-.474 1.586-1.587 1.586zm11.14 0c-1.113 0-1.587-.474-1.587-1.586 0-1.113.474-1.587 1.587-1.587s1.587.474 1.587 1.587c0 1.112-.474 1.586-1.587 1.586z" fill="#5CB615" fill-rule="nonzero"/></svg>
